svg/fluentui-system-icons/ic_fluent_building_government_20_filled.svg

<svg width="20" height="20" viewBox="0 0 20 20" fill="none" xmlns="http://www.w3.org/2000/svg">
<path d="M9.5 2C9.22386 2 9 2.22386 9 2.5V5.10002C6.71776 5.56329 5 7.58104 5 10V11H4C2.89543 11 2 11.8954 2 13V17C2 17.5523 2.44771 18 3 18H7.5C7.77614 18 8 17.7761 8 17.5V15.5C8 15.2239 8.22386 15 8.5 15H11.5C11.7761 15 12 15.2239 12 15.5V17.5C12 17.7761 12.2239 18 12.5 18H17C17.5523 18 18 17.5523 18 17V13C18 11.8954 17.1046 11 16 11H15V10C15 7.23858 12.7614 5 10 5V4H12.5C12.7761 4 13 3.77614 13 3.5V2.5C13 2.22386 12.7761 2 12.5 2H9.5ZM6 13.5V15.5C6 15.7761 5.77614 16 5.5 16C5.22386 16 5 15.7761 5 15.5V13.5C5 13.2239 5.22386 13 5.5 13C5.77614 13 6 13.2239 6 13.5ZM14.5 13C14.7761 13 15 13.2239 15 13.5V15.5C15 15.7761 14.7761 16 14.5 16C14.2239 16 14 15.7761 14 15.5V13.5C14 13.2239 14.2239 13 14.5 13ZM9 9.5V11.5C9 11.7761 8.77614 12 8.5 12C8.22386 12 8 11.7761 8 11.5V9.5C8 9.22386 8.22386 9 8.5 9C8.77614 9 9 9.22386 9 9.5ZM11.5 9C11.7761 9 12 9.22386 12 9.5V11.5C12 11.7761 11.7761 12 11.5 12C11.2239 12 11 11.7761 11 11.5V9.5C11 9.22386 11.2239 9 11.5 9Z" fill="#212121"/>
</svg>

<svg xmlns="http://www.w3.org/2000/svg" width="20" height="20"><path d="M9.5 2a.5.5 0 0 0-.5.5v2.6A5.002 5.002 0 0 0 5 10v1H4a2 2 0 0 0-2 2v4a1 1 0 0 0 1 1h4.5a.5.5 0 0 0 .5-.5v-2a.5.5 0 0 1 .5-.5h3a.5.5 0 0 1 .5.5v2a.5.5 0 0 0 .5.5H17a1 1 0 0 0 1-1v-4a2 2 0 0 0-2-2h-1v-1a5 5 0 0 0-5-5V4h2.5a.5.5 0 0 0 .5-.5v-1a.5.5 0 0 0-.5-.5h-3ZM6 13.5v2a.5.5 0 0 1-1 0v-2a.5.5 0 0 1 1 0Zm8.5-.5a.5.5 0 0 1 .5.5v2a.5.5 0 0 1-1 0v-2a.5.5 0 0 1 .5-.5ZM9 9.5v2a.5.5 0 0 1-1 0v-2a.5.5 0 0 1 1 0Zm2.5-.5a.5.5 0 0 1 .5.5v2a.5.5 0 0 1-1 0v-2a.5.5 0 0 1 .5-.5Z"/></svg>
